X:1
T:BWV 1010 Prelude
T:BWV 1010 Prelude
T:From Cello Suite IV
T:Johann Sebastian Bach
C:Johann Sebastian Bach
%%score ( 1 2 )
L:1/8
Q:1/4=110
M:4/4
K:G
V:1 tab stafflines=6 strings=E2,A2,D3,G3,B3,E4 nm="Guitar" snm="Guit."
V:2 tab stafflines=6 strings=E2,A2,D3,G3,B3,E4 
V:1
 !6!G,,!1!G!2!D!3!B, !2!D!4!G,!3!B,!5!D, | !6!G,,!1!G!2!D!3!B, !2!D!4!G,!3!B,!5!D, | %2
 !6!G,,!1!=F!2!D!2!B, !2!D!3!G,!2!B,!4!D, | !6!G,,!1!=F!2!D!2!B, !2!D!3!G,!2!B,!4!D, | %4
 !6!G,,!1!E!2!C!3!G, !2!C!4!E,!3!G,!5!C, | !6!G,,!1!E!2!C!3!G, !2!C!4!E,!3!G,!5!C, | %6
 !6!G,,!2!C!3!A,!4!F, !3!A,!4!D,!4!F,!5!C, | !6!G,,!2!C!3!A,!4!F, !3!A,!4!D,!4!F,!5!C, | %8
 !6!G,,!2!B,!3!G,!4!D, !3!G,!5!B,,!4!D,!6!G,, | !6!F,,!2!B,!3!G,!4!D, !3!G,!5!B,,!4!D,!6!F,, | %10
 !6!E,,!1!G!2!E!3!B, !2!E!4!G,!3!B,!4!E, | !4!D,!1!G!1!E!2!B, !1!E!3!G,!2!B,!4!D, | %12
 !5!^C,!1!G!1!E!3!A, !2!^C!4!E,!3!G,!5!C, | !5!A,,!1!G!1!E!2!^C !1!E!3!A,!2!C!3!G, | %14
 !4!D,!1!F!2!D!3!A, !2!D!4!F,!3!A,!4!D, | !5!C,!1!=F!2!D!3!A, !2!D!4!=F,!3!A,!5!C, | %16
 !5!B,,!1!=F!2!D!3!G, !2!B,!4!D,!3!G,!5!B,, | !6!G,,!1!=F!2!D!2!B, !2!D!3!G,!2!B,!4!=F, | %18
 !5!C,!1!E!2!C!3!G, !2!C!4!E,!3!G,!5!C, | !5!B,,!1!E!2!C!3!G, !2!C!4!E,!3!G,!5!B,, | %20
 !5!A,,!2!C!4!F,!4!^D, !4!F,!5!C,!4!D,!5!A,, | !6!G,,!2!C!3!A,!4!E, !3!A,!5!C,!4!E,!6!G,, | %22
 !6!F,,!2!C!3!A,!4!^D, !3!A,!5!B,,!5!C,!6!F,, | !6!E,,!2!C!3!A,!4!E, !3!A,!5!C,!4!E,!5!A,, | %24
 !4!^D,!1!F!2!C!3!A, !2!C!4!F,!3!A,!4!D, | !5!B,,!1!F!2!^D!3!A, !2!C!4!F,!3!A,!4!^D, | %26
 !6!E,,!1!G!1!E!2!B, !1!E!3!G,!2!B,!4!E, | !6!E,,!1!G!2!E!3!B, !2!E!4!G,!3!B,!4!E, | %28
 !5!D,!1!^G!2!E!3!B, !2!E!4!^G,!3!B,!5!E, | !4!D,!1!^G!1!E!2!B, !1!E!3!^G,!2!B,!4!D, | %30
 !5!C,!1!A!2!E!3!C !2!E!3!A,!3!C!3!^G, | !3!A,!1!E!2!C!3!^G, !3!A,!4!E,!3!A,!5!C, | %32
 !6!^G,,!1!=F!2!D!2!B, !2!D!3!^G,!2!B,!4!E, | !4!=F,!2!D!2!B,!3!^G, !2!B,!4!D,!4!F,!6!^G,, | %34
 !5!A,,!2!D!2!C!3!^G, !3!A,!5!C,!4!E,!5!A,, | !6!=G,,!2!C!3!A,!4!E, !3!A,!5!C,!4!E,!6!G,, | %36
 !6!F,,!2!C!3!A,!4!F, !3!A,!4!D,!4!F,!3!A, | !2!C!6!F,,!5!A,,!4!D, !4!F,!4!D,!2!C!3!A, | %38
 !6!G,,!2!B,!3!G,!4!D, !3!G,!5!B,,!4!D,!6!G,, | !5!B,,!4!D,!3!G,!4!D, !2!B,!3!G,!2!D!2!B, | %40
 !1!E!5!^C,!4!E,!3!^A, !2!^C!3!A,!1!E!2!C | !1!G!5!B,,!4!E,!3!G, !2!B,!3!G,!1!E!2!B, | %42
"^har." !3!G!5!^A,,!5!^C,!4!E, !3!G,!4!E,!3!^A,!4!E, | !2!^C!4!F,!3!^A,!2!C !1!E!2!C!1!F!2!C | %44
 !5!B,,!2!D!3!B,!4!F, !3!B,!4!D,!4!F,!5!B,, | !5!^A,,!2!D!3!B,!4!F, !3!B,!4!D,!4!F,!5!B,, | %46
 !6!G,,!2!D!3!B,!4!F, !3!B,!4!D,!4!F,!5!B,, | !6!F,,!2!D!3!B,!4!F, !3!B,!4!D,!4!F,!5!B,, | %48
 !fermata!!6!^E,,2 x2 x (!4!^E,/!4!F,/) (!3!^G,/!3!^A,/)(!2!B,/!2!^C/ | %49
 !2!D/!2!^C/!2!B,/)!3!^A,/ !2!B,/!3!^G,/(!4!^E,/!4!F,/) (!3!^G,/!3!^A,/)(!2!B,/!2!^C/ !2!D/!2!C/!2!B,/!2!C/ | %50
 !2!D/)(!1!=E/!1!F/!1!E/ !1!G/!1!F/!1!E/)(!2!D/ !2!^C/!2!D/!2!E/!2!D/ !2!C/!2!B,/)!3!^A,/!2!B,/ | %51
 !6!F,,!1!E!2!^C!3!^A, !2!C!4!F,!2!C!5!^C, | !6!F,,!1!E!2!^C!3!^A, !2!C!4!F,!2!C!5!^C, | %53
 !6!F,,!2!D!3!B,!4!F, !3!B,!4!D,!4!F,!5!B,, | !6!F,,!2!D!3!B,!4!F, !3!B,!4!D,!4!F,!5!B,, | %55
 !6!F,,/!1!^E/!2!_D/(!2!=C/ !2!D/)!1!^E/!2!D/(!2!C/ !2!D/)!1!E/!2!D/(!2!C/ !2!D/)!1!E/!2!D/!2!C/ | %56
 (!2!B,/!2!=D/!2!B,/)!3!^A,/ (!2!B,/!2!D/!2!B,/)!3!A,/ (!2!B,/!2!D/!2!B,/)!3!A,/ (!2!B,/!2!D/!2!B,/)!3!A,/ | %57
 !3!^G,/!2!B,/!3!G,/(!4!F,/ !4!^E,/)!3!G,/(!4!E,/!4!^D,/) !5!^C,/!4!E,/(!5!C,/!5!B,,/) (!5!^A,,/!5!C,/)!5!A,,/!6!^G,,/ | %58
 [!6!F,,!5!^C,!3!^A,!1!G-]2 !1!G/!1!F/!1!=E/!2!D/ !2!^C/!2!B,/!3!^A,/!3!^G,/ !4!F,/!4!E,/!4!D,/!5!^C,/ | %59
 (!1!F>!1!E) !2!D/!2!^C/!2!D/!2!B,/ (!2!D>!2!^C) !2!B,/!3!^A,/!2!B,/!4!^E,/ | %60
 ([!3!B,!2!^C]>!3!C) !2!B,/!3!^A,/!2!B,/!3!^G,/ T!3!^A,3 !2!B, | %61
 !5!B,,!2!D!3!B,!4!F, !3!B,!4!D,!4!F,!5!^A,, | !5!B,,!4!D,!4!F,!3!B, !2!D!3!B,!1!F!3!^A, | %63
 !5!B,,!1!=F!2!D!2!B, !2!D!3!^G,!2!B,!4!D, | !4!=F,!5!B,,!4!D,!3!^G, !2!B,!3!G,!1!=F!3!G, | %65
 !5!C,!1!E!2!C!3!A, !2!C!4!E,!3!A,!5!C, | !4!E,!3!A,!2!C!3!A, !1!E!3!A,!1!^F!3!A, | %67
 !5!^C,!1!G!2!E!3!^C !2!E!3!G,!3!_B,!4!E, | !3!G,!5!^C,!4!E,!3!G, !3!_B,!2!^C!1!E!1!G | %69
 !4!D,!1!F (!2!_E/!2!D/)!2!^C !2!E!1!F (!2!_E/!2!D/)!2!^C | %70
 !2!D!2!_E (!2!D/!2!=C/)!2!B, !2!C!2!_E (!2!D/!2!C/)!2!B, | %71
 !2!C!2!D (!3!C/!3!_B,/)!3!A, !3!_B,!2!D (!3!C/!3!B,/)!3!A, | %72
 !3!_B,!3!B, (!3!_A,/!3!G,/)!4!F, !3!G,!3!_B, (!3!_A,/!3!G,/)!4!F, | %73
 !4!G,!5!_E,!4!G,!3!C !2!_E!3!C!1!G!2!E | !3!C!2!_E!3!C!4!G, !5!_E,!5!C,!3!=A,!5!C, | %75
 !6!=E,,!5!^C,!3!_B,!4!F, (!3!G,/!3!_B,/!3!G,/)!4!F,/ (!3!G,/!3!B,/!3!G,/)!4!F,/ | %76
 !3!G,/!2!^C/(!3!_B,/!3!A,/ !3!_B,/)!2!^C/(!3!B,/!3!A,/ !3!B,/)!2!E/(!3!B,/!3!A,/ !3!B,/)!1!G/!3!B,/!3!A,/ | %77
 !3!_B,!4!D,!3!G,!3!B, !2!D!3!B,!1!G!2!D | !3!_B,!3!G,!2!D!3!B, !3!G,!4!D,!3!B,!3!G, | %79
 [!5!C,!3!_A,-!2!_E]2 !3!A,/!3!_B,/(!3!_A,/!3!B,/) (!2!C/!2!_D/)(!2!C/!2!D/) (!2!_E/!2!D/)(!2!E/!2!D/) | %80
 (!3!C/!3!_B,/)(!3!C/!3!B,/) (!3!_A,/!3!G,/)!4!F,/!3!G,/ !4!F,3 !4!G, | %81
 !6!G,,!1!G!2!D!3!=B, !2!D!4!G,!3!B,!5!D, | !6!G,,!1!G!2!D!3!B, !2!D!4!G,!3!B,!5!D, | %83
 !6!G,,!1!=F!2!D!2!B, !2!D!3!G,!2!B,!4!D, | !6!G,,!1!=F!2!D!2!B, !2!D!3!G,!2!B,!4!D, | %85
 !6!G,,!1!E!2!C!3!G, !2!C!4!E,!3!G,!5!C, | !6!G,,!1!E!2!C!3!G, !2!C!4!E,!3!G,!5!C, | %87
 !4!F,2- !4!F,/(!4!E,/!4!D,/!4!E,/ !4!F,/)(!3!G,/!3!A,/)(!2!B,/ !2!C/)!3!A,/(!2!B,/!2!C/) | %88
 !4!F,/(!3!G,/!3!A,/)(!4!D,/ !4!E,/!4!F,/)(!3!G,/!3!A,/) (!2!B,/!2!C/!2!D/)(!1!E/ !1!F/!1!E/)!1!G/!1!F/ | %89
 T!1!F2- !1!F/!2!D/!2!C/!2!B,/ !3!A,/!3!G,/!4!F,/!4!E,/ !4!D,/!5!C,/!5!B,,/!5!A,,/ | %90
 [!6!G,,!4!D,!2!B,!1!G]2 x2 x4 |] %91
V:2
 x8 | x8 | x8 | x8 | x8 | x8 | x8 | x8 | x8 | x8 | x8 | x8 | x8 | x8 | x8 | x8 | x8 | x8 | x8 | %19
 x8 | x8 | x8 | x8 | x8 | x8 | x8 | x8 | x8 | x8 | x8 | x8 | x8 | x8 | x8 | x8 | x8 | x8 | x8 | %38
 x8 | x8 | x8 | x8 | x8 | x8 | x8 | x8 | x8 | x8 | x8 | x8 | x8 | x8 | x8 | x8 | x8 | x8 | x8 | %57
 x8 | x8 | [!6!F,,!4!D,!2!B,]2 x2 [!4!^E,!3!B,]2 x2 | !4!F,2 x2 x4 | x8 | x8 | x8 | x8 | x8 | x8 | %67
 x8 | x8 | x8 | x8 | x8 | x8 | x8 | x8 | x8 | x8 | x8 | x8 | x8 | x4 !5!D,4 | x8 | x8 | x8 | x8 | %85
 x8 | x8 | x8 | x8 | x8 | x8 |] %91

